X:1
T:Title
%%score { ( 1 3 ) | 2 }
L:1/8
M:4/4
K:Ab
V:1 treble nm="Grand Piano"
V:3 treble 
V:2 bass 
V:1
 z4 z2[Q:1/4=100] [Ec]>[DB] | [CA]2 [CE]2 [CE]2 [CA]>[EG] | [EG]2 F2 F2 B>A | G2 G>F E2 d2 | %4
 [Ec]6 [Ec]>[DB] | [CA]2 [CE]2 [CE]2 [CA]>[EG] | [EG]2 F2 F2 B>A | G2 G>F E2 B2 |[M:3/4] [CA]6 | %9
[M:1/4] [A,C]>[B,D] |[M:4/4] [CE]4 [Ec]2 [Ec]>[Ec] | [DB]4 z4 | G2 B>B D2 F2 | [CE]6 [A,C]>[B,D] | %14
 [CE]4 [Ec]2 [Ec]>[Ec] | [DB]4 z4 | GB z2 d3 G |[M:3/4] [CEA]6 |] %18
V:2
 z4 z2 [A,,A,]>[A,,A,] | [A,,A,]2 [A,,A,]2 [A,,A,]2 [A,,E,]>[A,,A,] | %2
 [D,A,]2 [D,A,D]2 [D,A,D]2 [D,F,D]>[D,F,D] | [E,B,D]2 [E,B,D]>[E,A,D] [E,G,D]2 [E,B,E]2 | %4
 [A,,A,]6 [A,,A,]>[A,,A,] | [A,,A,]2 [A,,A,]2 [A,,A,]2 [A,,E,]>[A,,A,] | %6
 [D,A,]2 [D,A,D]2 [D,A,D]2 [D,F,D]>[D,F,D] | [E,B,D]2 [E,B,D]>[E,A,D] [E,G,D]2 [E,G,D]2 | %8
[M:3/4] [A,,A,]6 |[M:1/4] [A,,E,]>[A,,E,] |[M:4/4] [A,,A,]2 [A,,A,]2 [A,,A,]2 [A,,A,]>[A,,A,] | %11
 [D,F,]2 D,2 [D,A,D]2 [D,F,D]>[D,F,D] | [E,B,D]2 [E,G,D]>[E,G,D] [E,G,B,]2 [E,G,D]2 | %13
 [A,,A,]6 [A,,E,]>[A,,E,] | [A,,A,]2 [A,,A,]2 [A,,A,]2 [A,,A,]>[A,,A,] | %15
 [D,F,]2 D,2 [D,A,D]2 [D,F,D]>[D,F,D] | [E,B,E][E,G,E] z2 [E,B,E]3 [E,DE] |[M:3/4] [A,,A,]6 |] %18
V:3
 x8 | x8 | x8 | x8 | x8 | x8 | x8 | x8 |[M:3/4] x6 |[M:1/4] x2 |[M:4/4] x8 | z2 F,2 F2 A>A | x8 | %13
 x8 | x8 | z2 F,2 F2 A>A | x8 |[M:3/4] x6 |] %18

